X:1
T:Sonatina
T:Sonatina
T:for Violin and Piano
T:Franz Schubert, op. 137, N° 1
C:Franz Schubert
%%score 1 { ( 2 4 ) | ( 3 5 ) }
L:1/8
Q:1/4=140
M:2/2
K:D
V:1 treble nm="Violin"
V:2 treble nm="Piano"
V:4 treble 
V:3 bass 
V:5 bass 
V:1
"^Allegro molto"!p! (D4 F4) | (A6 FD) | (C2 D2 ^D2 E2) | A,4 z4 | (E4 G4) | (B6 GE) | %6
 (D2 E2 ^E2 F2) | A,4 z4 | (F4 A4) | (d6 AF) | (E2 G2 ^A2 B2) | (=A,6 B,C) |"^A" (D4 F4) | %13
 (A6 FD) | (C2 D2 ^D2 E2) | A,4 z4 | (E4 G4) | (B6 GE) | (^D2 E2 ^E2 F2) | B,4 z4 | (G4 B4) | %21
 (d6 BG) | (F4 A4) | (d6 AF) | (E4 G4) | (B6 cd) | (E2 F2 G2 ^G2) | (A6 C2) |"^B"!ff! .D4 .F4 | %29
 A4- A.F.G.A | BGAB cABc | dBcd ecde |!ff! .=f4 .a4 | .=c'6 (a=f) |{/e} .^d2 .d2 .d2 .d2 | e4 z4 | %36
"^C" z8 |!p! (B4 =d2 ^f2) | (e6 cB) | (A4 c2 e2) | (f6 dc) | (B4 d2 f2) | (e6 cB) | A4 z4 | z8 | %45
 z8 | z8 | z8 |"^D" z4!p! z2 (Ac | e2) z2 z2 (dc | B2) z2 z2 (Bd | .f2) z2 z2 (ed | %52
 .c2) z2 z2!mf! (ce |!<(! a4) b4!<)! |!>(! (c'4 ba^gf)!>)! | (.e2 .e2 .e2 .e2) | (e4 c2) z2 | %57
"^E" z2 .[CE]2 .[CE]2 z2 | z2 .[DE]2 .[DE]2 z2 | z2 .[B,E]2 .[B,E]2 z2 | z2 .[CE]2 .[CE]2 z2 | %61
!mf!!<(! d4 ^d4 | e4!<)! z4 | z2 (=d2 c2 B2) | A4 z4 |!f! (A,4 C4) | (E6 CB,) | (A,4 C2 E2) | %68
 (G6 FE) :| (^D4 F4) | (=c6 BA) | (^G4 B4) | (=f6 ed) |!p! (c4 e4) | (_b6 ag) | (=f4 a4) | %76
 d'4- (d'a=fd) | A2 (.[A,=G]2 .[A,G]2 .[A,G]2) | .[A,G]2 .[A,G]2 .[A,G]2 .[A,G]2 | %79
 [A,=F]2 [A,F]2 [A,F]2 [A,F]2 | [A,=F]2 [A,F]2 [A,F]2 [A,F]2 |"^F" .[A,E]2 (c2 e2 g2) | (_b6 ge) | %83
 (=c4 e2 g2) | (_b6 ge) | (=B4 e2 g2) | (b6 ge) | (=c4 e2 g2) |"_crescendo." (=c'6 ge) | %89
 (^c4 e2 g2) | c'4- (c'gec) |!<(! (d4 =f2 b2)!<)! |!>(! d'4- (d'b=fd)!>)! |!p! (a8 | !>!_b8) | %95
 (a8 | !>!_b8) |"_decresc." (a4 g4 | e4 c4) | (A4 G4 | E4 C4) |!pp!"^G" (D4 F4) | (A6 FD) | %103
 (C2 D2 ^D2 E2) | A,4 z4 | (E4 G4) | (B6 GE) | (D2 E2 ^E2 F2) | A,4 z4 | (F4 A4) | (d6 AF) | %111
 (E2 G2 ^A2 B2) | (=A,6 B,C) |!p! (D4 =F4) | (A6 =FD) | (C2 D2 ^D2 E2) | A,4 z4 | (=F4 A4) | %118
 (=c6 A=F) | (E2 =F2 ^F2 G2) | =C4 z4 |"^H" (G4 _B4) | (d6 _BG) | (^F2 G2 ^G2 A2) | D4 z4 | %125
 (_B4"_cresc." d4) | (=f6 d_B) | (A4 =c4) | (^f6 =cA) | (G4 _B4) | (=e6 fg) | (A2 =B2 =c2 ^c2) | %132
 (d6 F2) |"^I"!ff! .[G,G]4 .B,4 | D4- D.B,.=C.D | E=CDE FDEF | GEFG AFGA |!ff! ._B4 .d4 | %138
 .=f6 (d_B) |{/A} (.^G2 .G2 .G2 .G2) | A4 z4 |"^K" z8 |!p! (e4 =g2 =b2) | (a6 fe) | (d4 f2 a2) | %145
 (b6 gf) | (e4 g2 b2) | (a6 fe) | d4 z4 | z8 | z8 | z8 | z8 |"^L" z4 z2!p! (df | .a2) z2 z2 (gf | %155
 .e2) z2 z2 (eg | .b2) z2 z2 (ag | .f2) z2 z2!mf! (FA |!<(! d4) e4 | (f4!<)!!>(! edcB)!>)! | %160
 (.A2 .A2 .A2 .A2) | (A4 F2) z2 |"^M" z2!p! .[A,F]2 .[A,F]2 z2 | z2 .[B,G]2 .[B,G]2 z2 | %164
 z2 .[A,G]2 .[A,G]2 z2 | z2 .[A,F]2 .[A,F]2 z2 |!mf!!<(! G4 ^G4 | A4!<)! z4 | z2 (=G2 F2 E2) | %169
 D4 z4 |!pp! (D4 F4) | (A6 GF) | (E4 G4) | (B6 AG) | (F4 A4) | (d6 AF) | (E2 G2 ^A2 B2) | %177
 (A,6 B,C) | D4!ff! [Ddd']4 | [Ddd']4 z4 |] %180
V:2
!p! (D4 F4) | (A6 FD) | (C2 D2 ^D2 E2) | A,4 z4 | (E4 G4) | (B6 GE) | (D2 E2 ^E2 F2) | A,4 z4 | %8
 (F4 A4) | (d6 AF) | (E2 G2 ^A2 B2) | (=A,6 B,C) | (DF[A,D]F [A,D]F[A,D]F) | %13
 ([A,D]F[A,D]F [A,D]F[A,D]F) | (EGDG CGCG) | (CECE) (!>![A,^D]F[A,D]F) | %16
 ([G,E]G[G,E]G [G,E]G[G,E]G) | ([G,E]G[G,E]G [G,E]G[G,E]G) | (FAEA ^DADA) | %19
 (^DADA !>![=CF]A[CF]A) | ([=DG]B[DG]B [DG]B[DG]B) | ([DG]B[DG]B [DG]B[DG]B) | %22
 ([DF]A[DF]A [DF]A[DF]A) | ([DF]A[DF]A [DF]A[DF]A) | ([DE]B[DE]B [DE]B[DE]B) | %25
 ([DE]B[DE]B [DE]B[DE]B) | ([DE]A[DE]A [DE]A[DE]B) | ([DE]A[DE]A [CE]A[CE]A) |!ff! .D4 .F4 | %29
 A4- A.F.G.A | BGAB cABc | dBcd ecde |!ff! .[A=c=f]4 .[Acf]4 | .[A=c=fa]6 z2 | %34
 z2 .[=c^d]2 .[cd]2 .[Ad]2 | [^Ge]4 z4 |!p! (B4 =d4) | (^f6 dB) | (c4 e4) | (a6 ec) | (B4 d4) | %41
 (f6 dB) | (c4 e4) | (a6 ec) |!<(! (B2 c2 d2 e2 | ^e2 f2 ^g2 a2)!<)! | [A=e]4 ([Af]4 | (e6) dB) | %48
 A2!p! .[CEA]2 .[CEA]2 z2 | z2 .[CEA]2 .[CEA]2 z2 | z2 .[DE^G]2 .[DEG]2 z2 | %51
 z2 .[B,DE^G]2 .[B,DEG]2 z2 | z2 .[CEA]2 .[CEA]2 z2 |!mf! ([Dd]4 [^D^d]4 | [Ee]4) z4 | %55
 z2 (.[E^Gd]2 .[=EAc]2 .[EGB]2) | [EA]4 z2 (Ac | e2) z2 z2 (dc | B2) z2 z2 (Bd | f2) z2 z2 (ed | %60
 c2) z2 z2!mf! ce |!<(! [Aa]4 [Bb]4 | [cc']4!<)! ba^gf | (.e2 .e2) (e2 ^G2) | A4 z4 |!f! (A,4 C4) | %66
 (E6 CB,) | (A,4 C2 E2) | (=G6 FE) :|!f! (^D4 F4) | (=c6 BA) | (^G4 B4) | (=f6 ed) | %73
!p! c2 (.[E=Gc]2 .[EGc]2 .[EGc]2) | (.[E=Gc]2 .[EGc]2 .[EGc]2 .[EGc]2) | %75
 [=FAd]2 [FAd]2 [FAd]2 [FAd]2 | [=FAd]2 [FAd]2 [FAd]2 [FAd]2 |{/E} (c4 e4) | (b6 ag) | (=f4 a4) | %80
 d'4- (d'a=fd) | ^c2!p! [EG_B]2 [EGB]2 [EGB]2 | [EG_B]2 [EGB]2 [EGB]2 [EGB]2 | %83
 [EG_B]2 [EGB]2 [EGB]2 [EGB]2 | [EG_B]2 [EGB]2 [EGB]2 [EGB]2 | [EG=B]2 [EGB]2 [EGB]2 [EGB]2 | %86
 [EGB]2 [EGB]2 [EGB]2 [EGB]2 | [EG=c]2 [EGc]2 [EGc]2 [EGc]2 | %88
"_crescendo." [EG=c]2 [EGc]2 [EGc]2 [EGc]2 | [EG^c]2 [EGc]2 [EGc]2 [EGc]2 | %90
 [EGc]2 [EGc]2 [EGc]2 [EGc]2 |!<(! [=FBd]2 [FBd]2 [FBd]2 [FBd]2!<)! | %92
!>(! [=FBd]2 [FBd]2 [FBd]2 [FBd]2!>)! |!p! ([EAc]2 A2 c2 e2) | !>!g4- (gec_B) | (A4 c2 e2) | %96
 !>!g4- (gec_B) | A4 (_B4 | A4) (G4 | A4) (_B4 | A8) |!pp! (D4 F4) | (A6 FD) | (C2 D2 ^D2 E2) | %104
 A,4 z4 | (E4 G4) | (B6 GE) | (D2 E2 ^E2 F2) | A,4 z4 | (F4 A4) | (d6 AF) | (E2 G2 ^A2 B2) | %112
 (=A,6 B,C) |!p! (D=F[A,D]F [A,D]F[A,D]F) | ([A,D]=F[A,D]F [A,D]F[A,D]F) | (EGDG CGCG) | %116
 (CGCG) ([=CEG]_B[CEG]B) | ([=C=F]A[CF]A [CF]A[CF]A) | ([=C=F]A[CF]A [CF]A[CF]A) | (G_B=FB EBEB) | %120
 (E_BEB) (!>![=CD^F]A[CDF]A) | ([_B,G]_B[DG]B [DG]B[DG]B) | ([DG]_B[DG]B [DG]B[DG]B) | %123
 (A=cGc) (^FcFc) | (^F=cFc) ([_E=FA]c[EFA]c) | ([D_B]d[=FB]d)"_cresc." ([FB]d[FB]d) | %126
 [=F_B]d[FB]d [FB]d[FB]d | ([FA=c]d[FAc]d [FAc]d[FAc]d) | ([FA=c]d[FAc]d [FAc]d[FAc]d) | %129
 ([G_B]d[GB]d [GB]d[GB]d) | ([G_B]e[GB]e [GB]e[GB]e) | ([GA]d[GA]d [GA]d[GA]d) | %132
 ([GA]d[GA]d [FA]d[FA]d) |!ff! .G4 .B,4 | D4- D.B,.=C.D | E=CDE FDEF | GEFG AFGA | %137
!ff! .[D=F_B]4 .[DFB]4 | [D=F_Bd]6 z2 | z2 .[=F^G]2 .[DG]2 .[DG]2 | [CEA]4 z4 |!p! (E4 =G4) | %142
 (=B6 GE) | (F4 A4) | (d4 f2 a2) | (E4 G4) | (B6 GE) | (F4 A4) | (d6 AF) |!<(! (E2 F2 G2 A2) | %150
 (^A2 B2 c2 d2)!<)! | [D=A]4 B4 | (A6 =GE) |"_" D2 .D2 .D2 z2 | z2 .D2 .D2 z2 | z2 x2 x2 z2 | %156
 z2 x2 x2 z2 | z2 .D2 .D2 z2 |!mf!!<(! [G,G]4 [^G,^G]4 | [A,A]4!<)! z4 | %160
 z2 [A,C=G]2 [A,DF]2 [A,CE]2 | [A,D]4 z2!p! (df | a2) z2 z2 (gf | e2) z2 z2 (eg | b2) z2 z2 (ag | %165
 f2) z2 z2!mf! (FA |!<(! [Dd]4) [Ee]4 | [Ff]4!<)! (edcB) | .A2 .A2 (A2 C2) | D4 z4 |!pp! (D4 F4) | %171
 (A6 GF) | (E4 G4) | (B6 AG) | (F4 A4) | (d6 AF) | (E2 G2 ^A2 B2) | (=A,6 B,C) | D4!ff! [DFAd]4 | %179
 [DFAd]4 z4 |] %180
V:3
 (D,4 F,4) | (A,6 F,D,) | (C,2 D,2 ^D,2 E,2) | A,,4 z4 | (E,4 G,4) | (B,6 G,E,) | %6
 (D,2 E,2 ^E,2 F,2) | A,,4 z4 | (F,4 A,4) | (D6 A,F,) | (E,2 G,2 ^A,2 B,2) | (=A,,6 B,,C,) | %12
 D,2 z2 z4 | (D,4 F,4) | (A,6 E,C,) | .A,,4 .F,,4 | E,,4 z4 | (E,4 G,4) | (B,6 F,^D,) | %19
 .B,,4 .=D,4 | G,,2 z2 z4 | (G,,4 B,,4) | (D,6 A,,G,,) | (F,,4 D,4) | G,,4 z4 | (G,,4 ^G,,4) | %26
 A,,8 | A,,,8 | .[D,,D,]4 .[F,,F,]4 | [A,,A,]4- [A,,A,].F,.G,.A, | B,G,A,B, CA,B,C | DB,CD ECDE | %32
 .[=F,A,=C=F]4 .[F,A,CF]4 | .[=F,A,=C=F]6 z2 | z2 .[=F,,=F,]2 .[F,,F,]2 .[F,,F,]2 | [E,,E,]4 z4 | %36
 (E,^G,B,G, E,G,B,G,) | (E,^G,B,G, E,G,B,G,) | (E,A,CA, E,A,CA,) | (E,A,CA, E,A,CA,) | %40
 (E,^G,B,G, E,G,B,G,) | (E,^G,B,G, E,G,B,G,) | (C,E,A,E, C,E,A,E,) | (A,,C,A,C, A,,C,A,C,) | %44
 [D,F,B,]4 z4 | z8 | [E,C]4 ([^D,=C]4 | (B,6) D2) | A,2 .[A,,A,]2 .[A,,A,]2 z2 | %49
 z2 .[A,,A,]2 .[A,,A,]2 z2 | z2 .[A,,A,]2 .[A,,A,]2 z2 | z2 .[A,,A,]2 .[A,,A,]2 z2 | %52
 z2 .[A,,A,]2 .[A,,A,]2 z2 | ([F,A,]4 [=F,A,B,]4 | [E,A,C]4) z4 | z2 (.[E,B,]2 .[E,C]2 .[E,D]2) | %56
 [A,C]4 z4 | z2 .[A,CE]2 .[A,CE]2 z2 | z2 .[^G,DE]2 .[G,DE]2 z2 | z2 .[^G,B,E]2 .[G,B,E]2 z2 | %60
 z2 .[A,CE]2 .[A,CE]2 z2 | [F,A,]4 [=F,A,B,]4 | [E,A,C]4 z4 | %63
 z2 (.[E,^G,B,]2 .[E,A,C]2 .[E,B,D]2) | [A,C]4 z4 | (A,,4 C,4) | (E,6 C,B,,) | (A,,4 C,2 E,2) | %68
 (=G,6 F,E,) :| (^D,4 F,4) | (=C6 B,A,) | (^G,4 B,4) | (=F6 ^G,2) | .A,2 .A,2 .A,2 .A,2 | %74
 .A,2 .A,2 .A,2 .A,2 | A,2 A,2 A,2 A,2 | A,2 A,2 A,2 A,2 | A,2 [A,CE]2 [A,CE]2 [A,CE]2 | %78
 [A,CE]2 [A,CE]2 [A,CE]2 [A,CE]2 | [A,D=F]2 [A,DF]2 [A,DF]2 [A,DF]2 | %80
 [A,D=F]2 [A,DF]2 [A,DF]2 [A,DF]2 | [A,CE]2 z2 z4 | (=C,4 E,2 G,2) | (_B,6 G,E,) | (=C,4 E,2 G,2) | %85
 (=B,6 G,E,) | (B,,4 E,2 G,2) | (_B,6 G,E,) | (_B,,2 E,2 G,2 _B,2) | (A,6 E,^C,) | %90
 (A,,2 C,2 E,2 A,2) | (^G,6 D,B,,) | (^G,,2 B,,2 D,2 ^G,2) | A,2 z2 z4 | !>![G,CE]8- | [G,CE]4 z4 | %96
 !>![G,CE]8- | [G,CE]4"^dim." ([G,C-E-]4 | [G,CE]4) ([_B,C-E-]4 | [A,CE]4) [G,CE]4- | [G,CE]8 | %101
 (D,4 F,4) | (A,6 F,D,) | (C,2 D,2 ^D,2 E,2) | A,,4 z4 | (E,4 G,4) | (B,6 G,E,) | %107
 (D,2 E,2 ^E,2 F,2) | A,,4 z4 | (F,4 A,4) | (D6 A,F,) | (E,2 G,2 ^A,2 B,2) | (A,,6 B,,C,) | %113
 D,2 z2 z4 | (D,4 =F,4) | (A,6 E,C,) | .A,,4 .=C,4 | =F,,2 z2 z4 | (=F,4 A,4) | (=C6 G,E,) | %120
 .=C,4 .D,4 | G,,2 z2 z4 | (G,,4 _B,,4) | (D,6 A,,F,,) | .D,,4 .=F,,4 | _B,,,2 z2 z4 | %126
 (_B,,4 D,4) | (D,,6 ^F,,A,,) | (D,4 D,,4) | (G,,6 _B,,D,) | (^C,4 C4) | (D8 | D,8) | %133
 .[G,,,G,,]4 .[B,,,B,,]4 | [D,,D,]4- [D,,D,].B,,.=C,.D, | E,=C,D,E, F,D,E,F, | G,E,F,G, A,F,G,A, | %137
 .[_B,,D,=F,_B,]4 .[B,,D,F,B,]4 | [_B,,D,=F,_B,]6 z2 | z2 ._B,,2 .B,,2 .B,,2 | A,,4 z4 | %141
 (A,,C,E,C, A,,C,E,C,) | (A,,C,E,C, A,,C,E,C,) | (A,,D,F,D, A,,D,F,D,) | (A,,D,F,D, A,,D,F,D,) | %145
 (A,,C,E,C, A,,C,E,C,) | (G,,C,E,C, G,,C,E,C,) | (F,,A,,D,A,, F,,A,,D,A,,) | %148
 (D,,F,,D,F,, D,,F,,D,F,,) | [G,,B,,E,]4 z4 | z8 | [A,,F,]4 [^G,,=F,]4 | (E,6 =G,2) | %153
 [D,F,]2 .[D,,D,]2 .[D,,D,]2 z2 | [D,F,]2 .[D,,D,]2 .[D,,D,]2 z2 | z2 .[D,,D,]2 .[D,,D,]2 z2 | %156
 z2 .[D,,D,]2 .[D,,D,]2 z2 | [D,F,]2 .[D,,D,]2 .[D,,D,]2 z2 | [B,,D,]4 [_B,,D,E,]4 | %159
 [A,,D,F,]4 z4 | z2 [A,,E,]2 [A,,F,]2 [A,,G,]2 | [D,F,]4 z4 | z2 .[D,F,A,]2 .[D,F,A,]2 z2 | %163
 z2 .[D,G,B,]2 .[D,G,B,]2 z2 | z2 .[C,E,A,]2 .[C,E,A,]2 z2 | z2 .[D,F,A,]2 .[D,F,A,]2 z2 | %166
 [B,,D,G,]4 [_B,,D,^G,]4 | [A,,D,A,]4 z4 | z2 (.[A,,C,E,]2 .[A,,D,F,]2 .[A,,E,G,]2) | [D,F,]4 z4 | %170
!pp! (D,4 F,4) | (A,6 G,F,) | (E,4 G,4) | (B,6 A,G,) | (F,4 A,4) | (D6 A,F,) | (E,2 G,2 ^A,2 B,2) | %177
 (=A,,6 B,,C,) | D,4 [D,,D,]4 | [D,,D,]4 z4 |] %180
V:4
 x8 | x8 | x8 | x8 | x8 | x8 | x8 | x8 | x8 | x8 | x8 | x8 | x8 | x8 | x8 | x8 | x8 | x8 | x8 | %19
 x8 | x8 | x8 | x8 | x8 | x8 | x8 | x8 | x8 | x8 | x8 | x8 | x8 | x8 | x8 | x8 | x8 | x8 | x8 | %38
 x8 | x8 | x8 | x8 | x8 | x8 | x8 | x8 | x8 | (A4 ^G4) | x8 | x8 | x8 | x8 | x8 | x8 | x8 | x8 | %56
 x8 | x8 | x8 | x8 | x8 | x8 | x8 | x8 | x8 | x8 | x8 | x8 | x8 :| x8 | x8 | x8 | x8 | x8 | x8 | %75
 x8 | x8 | x8 | x8 | x8 | x8 | x8 | x8 | x8 | x8 | x8 | x8 | x8 | x8 | x8 | x8 | x8 | x8 | x8 | %94
 x8 | x8 | x8 | x8 | x8 | x8 | x8 | x8 | x8 | x8 | x8 | x8 | x8 | x8 | x8 | x8 | x8 | x8 | x8 | %113
 x8 | x8 | x8 | x8 | x8 | x8 | x8 | x8 | x8 | x8 | x8 | x8 | x8 | x8 | x8 | x8 | x8 | x8 | x8 | %132
 x8 | x8 | x8 | x8 | x8 | x8 | x8 | x8 | x8 | x8 | x8 | x8 | x8 | x8 | x8 | x8 | x8 | x8 | x8 | %151
 x4 !>!D4- | (D4 C4) | x8 | x8 | x8 | x8 | x8 | x8 | x8 | x8 | x8 | x8 | x8 | x8 | x8 | x8 | x8 | %168
 x8 | x8 | x8 | x8 | x8 | x8 | x8 | x8 | x8 | x8 | x8 | x8 |] %180
V:5
 x8 | x8 | x8 | x8 | x8 | x8 | x8 | x8 | x8 | x8 | x8 | x8 | x8 | x8 | x8 | x8 | x8 | x8 | x8 | %19
 x8 | x8 | x8 | x8 | x8 | x8 | x8 | x8 | x8 | x8 | x8 | x8 | x8 | x8 | x8 | x8 | x8 | x8 | x8 | %38
 x8 | x8 | x8 | x8 | x8 | x8 | x8 | x8 | x8 | E,8 | ^C2 x6 | x8 | x8 | x8 | x8 | x8 | x8 | x8 | %56
 x8 | x8 | x8 | x8 | x8 | x8 | x8 | x8 | x8 | x8 | x8 | x8 | x8 :| x8 | x8 | x8 | x8 | x8 | x8 | %75
 x8 | x8 | x8 | x8 | x8 | x8 | x8 | x8 | x8 | x8 | x8 | x8 | x8 | x8 | x8 | x8 | x8 | x8 | x8 | %94
 x8 | x8 | x8 | x8 | x8 | x8 | x8 | x8 | x8 | x8 | x8 | x8 | x8 | x8 | x8 | x8 | x8 | x8 | x8 | %113
 x8 | x8 | x8 | x8 | x8 | x8 | x8 | x8 | x8 | x8 | x8 | x8 | x8 | x8 | x8 | x8 | x8 | x8 | x8 | %132
 x8 | x8 | x8 | x8 | x8 | x8 | x8 | x8 | x8 | x8 | x8 | x8 | x8 | x8 | x8 | x8 | x8 | x8 | x8 | %151
 x8 | A,,8 | x2 [F,A,]2 [F,A,]2 x2 | x2 [F,A,]2 [F,A,]2 x2 | z2 .[G,A,C]2 .[G,A,C]2 z2 | %156
 z2 .[G,A,C]2 .[G,A,C]2 z2 | x2 [F,A,]2 [F,A,]2 x2 | x8 | x8 | x8 | x8 | x8 | x8 | x8 | x8 | x8 | %167
 x8 | x8 | x8 | x8 | x8 | x8 | x8 | x8 | x8 | x8 | x8 | x8 | x8 |] %180

